X: 15142
T: the Bonny Earl of Murray
%R: air, minuet, waltz
B: James Oswald "The Caledonian Pocket Companion" v.1 b.5 p.14 #2
S: https://ia800501.us.archive.org/18/items/caledonianpocket01rugg/caledonianpocket01rugg_bw.pdf
Z: 2020 John Chambers <jc:trillian.mit.edu>
M: 3/4
L: 1/8
K: G
%%slurgraces 1
%%graceslurs 1
"_Slow"DE |\
G3 A (BA) | {A}G2 {E}D2 (dc) |\
{c}B3 A Bd | {de}f4 Te>d |\
{e^f}g3 f ed | {d}e2 g2 D>E |
G2 (dB) (A>G) | E4 d>e |\
{ga}b3 a (g/e/d) | {d}e2 g2 D>E |\
G2 (dB) (TA>G) | G4 :|
